assets/build/img/icons/jogos.svg

<svg width="24" height="24" xmlns="http://www.w3.org/2000/svg"><path d="M20.4 15.6h-1.2v-1.2c0-.72-.48-1.2-1.2-1.2s-1.2.48-1.2 1.2v1.2h-3.6V9.48c2.04-.48 3.6-2.4 3.6-4.68C16.8 2.16 14.64 0 12 0 9.36 0 7.2 2.16 7.2 4.8c0 2.28 1.56 4.08 3.6 4.68v6.12H7.2v-1.2c0-.72-.48-1.2-1.2-1.2s-1.2.48-1.2 1.2v1.2H3.6c-2.04 0-3.6 1.56-3.6 3.6v1.2C0 22.44 1.56 24 3.6 24h16.8c2.04 0 3.6-1.56 3.6-3.6v-1.2c0-2.04-1.56-3.6-3.6-3.6zM9.6 4.8c0-1.32 1.08-2.4 2.4-2.4 1.32 0 2.4 1.08 2.4 2.4 0 1.32-1.08 2.4-2.4 2.4-1.32 0-2.4-1.08-2.4-2.4zm12 15.6c0 .72-.48 1.2-1.2 1.2H3.6c-.72 0-1.2-.48-1.2-1.2v-1.2c0-.72.48-1.2 1.2-1.2h16.8c.72 0 1.2.48 1.2 1.2v1.2z" fill="#D8D8D8"/></svg>

<?xml version="1.0" encoding="UTF-8"?>
<svg width="24px" height="24px" viewBox="0 0 24 24" version="1.1" xmlns="http://www.w3.org/2000/svg" xmlns:xlink="http://www.w3.org/1999/xlink">
    <!-- Generator: sketchtool 51.3 (57544) - http://www.bohemiancoding.com/sketch -->
    <title>5F2F09BA-1FD6-4E7D-89FB-A3574C4BB31E</title>
    <desc>Created with sketchtool.</desc>
    <defs></defs>
    <g id="Symbols" stroke="none" stroke-width="1" fill="none" fill-rule="evenodd">
        <g id="icon/cinza/game" fill="#D8D8D8" fill-rule="nonzero">
            <g id="icon/cinza/jogos/large">
                <path d="M20.4,15.6 L19.2,15.6 L19.2,14.4 C19.2,13.68 18.72,13.2 18,13.2 C17.28,13.2 16.8,13.68 16.8,14.4 L16.8,15.6 L13.2,15.6 L13.2,9.48 C15.24,9 16.8,7.08 16.8,4.8 C16.8,2.16 14.64,0 12,0 C9.36,0 7.2,2.16 7.2,4.8 C7.2,7.08 8.76,8.88 10.8,9.48 L10.8,15.6 L7.2,15.6 L7.2,14.4 C7.2,13.68 6.72,13.2 6,13.2 C5.28,13.2 4.8,13.68 4.8,14.4 L4.8,15.6 L3.6,15.6 C1.56,15.6 0,17.16 0,19.2 L0,20.4 C0,22.44 1.56,24 3.6,24 L20.4,24 C22.44,24 24,22.44 24,20.4 L24,19.2 C24,17.16 22.44,15.6 20.4,15.6 Z M9.6,4.8 C9.6,3.48 10.68,2.4 12,2.4 C13.32,2.4 14.4,3.48 14.4,4.8 C14.4,6.12 13.32,7.2 12,7.2 C10.68,7.2 9.6,6.12 9.6,4.8 Z M21.6,20.4 C21.6,21.12 21.12,21.6 20.4,21.6 L3.6,21.6 C2.88,21.6 2.4,21.12 2.4,20.4 L2.4,19.2 C2.4,18.48 2.88,18 3.6,18 L20.4,18 C21.12,18 21.6,18.48 21.6,19.2 L21.6,20.4 Z" id="Shape"></path>
            </g>
        </g>
    </g>
</svg>
